; G-Code generated by Simplify3D(R) Version 4.1.2
; Apr 10, 2020 at 1:25:11 PM
; Settings Summary
;   processName,Process1
;   applyToModels,Shields Up Project - SUP V2,Shields Up Project - SUP V2(2)
;   profileName,Default (modified)
;   profileVersion,2018-01-19 08:00:00
;   baseProfile,Prusa Research Original Prusa i3 MK3 (modified)
;   printMaterial,PET
;   printQuality,Fast
;   printExtruders,
;   extruderName,Primary Extruder
;   extruderToolheadNumber,0
;   extruderDiameter,0.8
;   extruderAutoWidth,0
;   extruderWidth,0.9
;   extrusionMultiplier,1
;   extruderUseRetract,1
;   extruderRetractionDistance,1
;   extruderExtraRestartDistance,0
;   extruderRetractionZLift,0
;   extruderRetractionSpeed,2400
;   extruderUseCoasting,1
;   extruderCoastingDistance,0.2
;   extruderUseWipe,1
;   extruderWipeDistance,2
;   primaryExtruder,0
;   layerHeight,0.6
;   topSolidLayers,2
;   bottomSolidLayers,2
;   perimeterOutlines,2
;   printPerimetersInsideOut,1
;   startPointOption,2
;   startPointOriginX,0
;   startPointOriginY,0
;   sequentialIslands,0
;   spiralVaseMode,0
;   firstLayerHeightPercentage,100
;   firstLayerWidthPercentage,100
;   firstLayerUnderspeed,0.5
;   useRaft,0
;   raftExtruder,0
;   raftTopLayers,3
;   raftBaseLayers,2
;   raftOffset,3
;   raftSeparationDistance,0.14
;   raftTopInfill,100
;   aboveRaftSpeedMultiplier,0.3
;   useSkirt,1
;   skirtExtruder,0
;   skirtLayers,1
;   skirtOutlines,1
;   skirtOffset,8
;   usePrimePillar,0
;   primePillarExtruder,999
;   primePillarWidth,12
;   primePillarLocation,7
;   primePillarSpeedMultiplier,1
;   useOozeShield,0
;   oozeShieldExtruder,999
;   oozeShieldOffset,2
;   oozeShieldOutlines,1
;   oozeShieldSidewallShape,1
;   oozeShieldSidewallAngle,30
;   oozeShieldSpeedMultiplier,1
;   infillExtruder,0
;   internalInfillPattern,Grid
;   externalInfillPattern,Rectilinear
;   infillPercentage,40
;   outlineOverlapPercentage,20
;   infillExtrusionWidthPercentage,100
;   minInfillLength,5
;   infillLayerInterval,1
;   internalInfillAngles,45,-45
;   overlapInternalInfillAngles,1
;   externalInfillAngles,45,-45
;   generateSupport,0
;   supportExtruder,0
;   supportInfillPercentage,25
;   supportExtraInflation,0
;   supportBaseLayers,0
;   denseSupportExtruder,0
;   denseSupportLayers,0
;   denseSupportInfillPercentage,70
;   supportLayerInterval,1
;   supportHorizontalPartOffset,0.3
;   supportUpperSeparationLayers,1
;   supportLowerSeparationLayers,1
;   supportType,0
;   supportGridSpacing,4
;   maxOverhangAngle,45
;   supportAngles,0
;   temperatureName,Primary Extruder,Heated Bed
;   temperatureNumber,0,0
;   temperatureSetpointCount,1,1
;   temperatureSetpointLayers,1,1
;   temperatureSetpointTemperatures,233,85
;   temperatureStabilizeAtStartup,1,1
;   temperatureHeatedBed,0,1
;   fanLayers,1,2
;   fanSpeeds,0,35
;   blipFanToFullPower,0
;   adjustSpeedForCooling,1
;   minSpeedLayerTime,15
;   minCoolingSpeedSlowdown,20
;   increaseFanForCooling,0
;   minFanLayerTime,45
;   maxCoolingFanSpeed,100
;   increaseFanForBridging,0
;   bridgingFanSpeed,100
;   use5D,1
;   relativeEdistances,0
;   allowEaxisZeroing,1
;   independentExtruderAxes,0
;   includeM10123,0
;   stickySupport,1
;   applyToolheadOffsets,0
;   gcodeXoffset,0
;   gcodeYoffset,0
;   gcodeZoffset,-0.15
;   overrideMachineDefinition,1
;   machineTypeOverride,0
;   strokeXoverride,250
;   strokeYoverride,210
;   strokeZoverride,210
;   originOffsetXoverride,0
;   originOffsetYoverride,0
;   originOffsetZoverride,0
;   homeXdirOverride,-1
;   homeYdirOverride,-1
;   homeZdirOverride,-1
;   flipXoverride,1
;   flipYoverride,-1
;   flipZoverride,1
;   toolheadOffsets,0,0|0,0|0,0|0,0|0,0|0,0
;   overrideFirmwareConfiguration,1
;   firmwareTypeOverride,RepRap (Marlin/Repetier/Sprinter)
;   GPXconfigOverride,r2
;   baudRateOverride,115200
;   overridePrinterModels,1
;   printerModelsOverride
;   startingGcode,M115 U3.0.7 ; use the latest firmware version,G28 W ; home all axes without mesh bed leveling,G80 ; run mesh bed leveling routine,G1 Y-3.0 F1000.0 ; prepare to prime,G92 E0 ; reset extrusion distance,G1 X60.0 E9.0  F1000.0 ; priming,G1 X100.0 E12.5  F1000.0 ; priming
;   layerChangeGcode,
;   retractionGcode,
;   toolChangeGcode,
;   endingGcode,G4 ; wait,M106 S0 ; turn off cooling fan,M104 S0 ; turn off extruder,M140 S0 ; turn off bed,G1 X0 Y200 ; part removal,M84 ; disable motors
;   exportFileFormat,gcode
;   celebration,0
;   celebrationSong,Random Song
;   postProcessing,curl -k -H "X-Api-Key: 8DAA966478B9410186616FB8EB887260" -F "select=true" -F "print=true" -F "file=@[output_filepath]" "http://192.168.1.30/api/files/local" {STRIP "; postProcessing"}
;   defaultSpeed,1800
;   outlineUnderspeed,0.75
;   solidInfillUnderspeed,0.8
;   supportUnderspeed,0.8
;   rapidXYspeed,7200
;   rapidZspeed,1002
;   minBridgingArea,50
;   bridgingExtraInflation,0
;   bridgingExtrusionMultiplier,1
;   bridgingSpeedMultiplier,1
;   useFixedBridgingAngle,0
;   fixedBridgingAngle,0
;   applyBridgingToPerimeters,0
;   filamentDiameters,1.75|1.75|1.75|1.75|1.75|1.75
;   filamentPricesPerKg,40|46|46|46|46|46
;   filamentDensities,1.25|1.25|1.25|1.25|1.25|1.25
;   useMinPrintHeight,0
;   minPrintHeight,0
;   useMaxPrintHeight,0
;   maxPrintHeight,0
;   useDiaphragm,0
;   diaphragmLayerInterval,20
;   robustSlicing,1
;   mergeAllIntoSolid,0
;   onlyRetractWhenCrossingOutline,1
;   retractBetweenLayers,1
;   useRetractionMinTravel,0
;   retractionMinTravel,3
;   retractWhileWiping,1
;   onlyWipeOutlines,1
;   avoidCrossingOutline,0
;   maxMovementDetourFactor,3
;   toolChangeRetractionDistance,12
;   toolChangeExtraRestartDistance,-0.5
;   toolChangeRetractionSpeed,600
;   externalThinWallType,1
;   internalThinWallType,1
;   thinWallAllowedOverlapPercentage,25
;   singleExtrusionMinLength,1
;   singleExtrusionMinPrintingWidthPercentage,50
;   singleExtrusionMaxPrintingWidthPercentage,200
;   singleExtrusionEndpointExtension,0.2
;   horizontalSizeCompensation,0
G90
M82
M106 S0
M140 S85
M190 S85
M104 S233 T0
M109 S233 T0
M115 U3.0.7 ; use the latest firmware version
G28 W ; home all axes without mesh bed leveling
G80 ; run mesh bed leveling routine
G1 Y-3.0 F1000.0 ; prepare to prime
G92 E0 ; reset extrusion distance
G1 X60.0 E9.0  F1000.0 ; priming
G1 X100.0 E12.5  F1000.0 ; priming
@Object Process1
; layer 1, Z = 0.450
T0
G92 E0.0000
G1 E-1.0000 F2400
; feature skirt
; tool H0.600 W0.900
G1 Z0.450 F1002
G1 X43.083 Y44.013 F7200
G1 E0.0000 F2400
G92 E0.0000
G1 X45.368 Y41.702 E0.7298 F900
G1 X45.492 Y41.581 E0.7687
G1 X48.988 Y38.322 E1.8416
G1 X49.116 Y38.208 E1.8802
G1 X52.758 Y35.081 E2.9579
G1 X52.928 Y34.942 E3.0070
G1 X56.730 Y32.005 E4.0857
G1 X56.869 Y31.902 E4.1246
G1 X60.789 Y29.123 E5.2034
G1 X60.977 Y28.997 E5.2541
G1 X65.560 Y26.103 E6.4710
G1 X65.696 Y26.021 E6.5068
G1 X68.194 Y24.572 E7.1550
G1 X68.296 Y24.515 E7.1812
G1 X70.585 Y23.271 E7.7662
G1 X70.711 Y23.205 E7.7981
G1 X75.262 Y20.925 E8.9409
G1 X75.474 Y20.826 E8.9932
G1 X80.448 Y18.669 E10.2104
G1 X80.593 Y18.610 E10.2458
G1 X82.182 Y17.990 E10.6286
G1 X82.364 Y17.210 E10.8083
G1 X83.418 Y15.072 E11.3434
G1 X83.971 Y14.223 E11.5710
G1 X84.886 Y13.132 E11.8907
G1 X86.025 Y12.176 E12.2246
G1 X87.622 Y11.257 E12.6381
G1 X89.385 Y10.703 E13.0530
G1 X92.089 Y10.469 E13.6624
G1 X93.554 Y10.596 E13.9925
G1 X95.180 Y11.030 E14.3703
G1 X96.720 Y11.800 E14.7569
G1 X98.342 Y13.076 E15.2202
G1 X98.424 Y13.164 E15.2472
G1 X101.822 Y12.455 E16.0265
G1 X101.914 Y12.437 E16.0475
G1 X103.242 Y12.190 E16.3508
G1 X103.396 Y12.165 E16.3859
G1 X107.118 Y11.615 E17.2305
G1 X107.230 Y11.600 E17.2558
G1 X109.123 Y11.372 E17.6838
G1 X109.245 Y11.359 E17.7113
G1 X113.593 Y10.963 E18.6916
G1 X113.722 Y10.954 E18.7207
G1 X115.637 Y10.838 E19.1515
G1 X115.767 Y10.832 E19.1806
G1 X117.682 Y10.776 E19.6108
G1 X117.807 Y10.774 E19.6387
G1 X119.720 Y10.774 E20.0683
G1 X119.844 Y10.776 E20.0961
G1 X121.570 Y10.827 E20.4838
G1 X126.477 Y10.827 E21.5853
G1 X126.731 Y10.834 E21.6425
G1 X128.696 Y10.953 E22.0845
G1 X128.804 Y10.961 E22.1086
G1 X132.545 Y11.282 E22.9516
G1 X132.688 Y11.297 E22.9840
G1 X134.584 Y11.525 E23.4127
G1 X134.680 Y11.538 E23.4345
G1 X139.032 Y12.164 E24.4216
G1 X139.245 Y12.200 E24.4700
G1 X144.053 Y13.144 E25.5700
G1 X145.204 Y12.136 E25.9134
G1 X146.548 Y11.341 E26.2641
G1 X148.284 Y10.707 E26.6789
G1 X150.052 Y10.458 E27.0798
G1 X152.682 Y10.645 E27.6717
G1 X154.178 Y11.033 E28.0188
G1 X155.954 Y11.861 E28.4587
G1 X157.426 Y12.991 E28.8753
G1 X158.459 Y14.223 E29.2363
G1 X159.013 Y15.072 E29.4639
G1 X160.066 Y17.211 E29.9990
G1 X160.248 Y17.990 E30.1787
G1 X161.829 Y18.606 E30.5596
G1 X161.958 Y18.659 E30.5910
G1 X164.315 Y19.670 E31.1665
G1 X164.345 Y19.683 E31.1740
G1 X166.976 Y20.835 E31.8188
G1 X167.168 Y20.925 E31.8664
G1 X171.460 Y23.069 E32.9435
G1 X171.608 Y23.146 E32.9811
G1 X173.332 Y24.094 E33.4226
G1 X173.377 Y24.119 E33.4342
G1 X176.677 Y25.987 E34.2855
G1 X176.852 Y26.091 E34.3313
G1 X181.453 Y28.997 E35.5531
G1 X181.641 Y29.123 E35.6038
G1 X185.573 Y31.911 E36.6859
G1 X185.736 Y32.032 E36.7316
G1 X190.249 Y35.569 E38.0189
G1 X190.419 Y35.710 E38.0684
G1 X194.535 Y39.298 E39.2944
G1 X194.717 Y39.467 E39.3501
G1 X199.277 Y43.940 E40.7841
G1 X199.444 Y44.113 E40.8381
G1 X202.682 Y47.673 E41.9184
G1 X202.794 Y47.802 E41.9567
G1 X205.878 Y51.481 E43.0345
G1 X206.013 Y51.650 E43.0832
G1 X207.754 Y53.958 E43.7321
G1 X207.793 Y54.011 E43.7469
G1 X209.668 Y56.579 E44.4609
G1 X209.729 Y56.664 E44.4844
G1 X211.376 Y59.042 E45.1337
G1 X211.475 Y59.190 E45.1737
G1 X213.858 Y62.959 E46.1749
G1 X213.922 Y63.065 E46.2026
G1 X214.500 Y64.041 E46.4573
G1 X215.806 Y64.112 E46.7508
G1 X217.663 Y64.650 E47.1850
G1 X219.908 Y65.906 E47.7625
G1 X220.997 Y66.776 E48.0753
G1 X222.175 Y68.088 E48.4713
G1 X223.008 Y69.475 E48.8345
G1 X223.915 Y71.958 E49.4280
G1 X223.985 Y74.725 E50.0494
G1 X223.566 Y76.086 E50.3692
G1 X223.332 Y77.092 E50.6010
G1 X222.686 Y78.609 E50.9711
G1 X222.067 Y79.561 E51.2260
G1 X222.978 Y81.762 E51.7608
G1 X220.052 Y88.378 E53.3850
G1 X215.506 Y90.013 E54.4695
G1 X215.785 Y91.735 E54.8612
G1 X215.795 Y91.802 E54.8764
G1 X216.299 Y95.269 E55.6628
G1 X216.323 Y95.471 E55.7087
G1 X216.541 Y97.731 E56.2183
G1 X217.146 Y97.852 E56.3567
G1 X218.517 Y98.274 E56.6788
G1 X219.060 Y98.483 E56.8094
G1 X219.941 Y98.894 E57.0278
G1 X220.503 Y99.210 E57.1725
G1 X221.712 Y100.018 E57.4990
G1 X222.355 Y100.545 E57.6857
G1 X223.445 Y101.635 E58.0317
G1 X223.968 Y102.272 E58.2168
G1 X224.775 Y103.475 E58.5419
G1 X225.090 Y104.033 E58.6859
G1 X225.509 Y104.927 E58.9076
G1 X225.730 Y105.504 E59.0462
G1 X226.118 Y106.791 E59.3481
G1 X226.256 Y107.420 E59.4926
G1 X226.417 Y108.556 E59.7502
G1 X226.458 Y109.148 E59.8833
G1 X226.458 Y120.003 E62.3203
G1 X226.417 Y120.594 E62.4535
G1 X226.256 Y121.730 E62.7111
G1 X226.118 Y122.359 E62.8555
G1 X225.697 Y123.756 E63.1830
G1 X225.374 Y124.536 E63.3728
G1 X224.643 Y125.900 E63.7201
G1 X224.187 Y126.581 E63.9040
G1 X223.211 Y127.774 E64.2502
G1 X222.618 Y128.366 E64.4383
G1 X221.421 Y129.348 E64.7859
G1 X220.733 Y129.807 E64.9714
G1 X219.373 Y130.534 E65.3176
G1 X218.612 Y130.850 E65.5028
G1 X217.129 Y131.302 E65.8508
G1 X216.296 Y131.467 E66.0415
G1 X214.761 Y131.614 E66.3877
G1 X213.956 Y131.614 E66.5685
G1 X212.422 Y131.468 E66.9144
G1 X211.903 Y131.365 E67.0331
G1 X211.964 Y131.464 E67.0591
G1 X212.542 Y132.440 E67.3138
G1 X213.847 Y132.511 E67.6073
G1 X215.705 Y133.049 E68.0415
G1 X217.950 Y134.305 E68.6191
G1 X219.038 Y135.175 E68.9319
G1 X220.216 Y136.487 E69.3278
G1 X221.049 Y137.874 E69.6910
G1 X221.956 Y140.358 E70.2846
G1 X222.027 Y143.125 E70.9060
G1 X221.607 Y144.485 E71.2257
G1 X221.373 Y145.491 E71.4576
G1 X220.727 Y147.008 E71.8277
G1 X220.109 Y147.960 E72.0825
G1 X221.020 Y150.161 E72.6173
G1 X218.093 Y156.777 E74.2415
G1 X213.547 Y158.412 E75.3260
G1 X213.826 Y160.134 E75.7177
G1 X213.836 Y160.201 E75.7329
G1 X214.340 Y163.668 E76.5193
G1 X214.365 Y163.871 E76.5652
G1 X214.582 Y166.130 E77.0749
G1 X215.187 Y166.251 E77.2133
G1 X216.558 Y166.673 E77.5354
G1 X217.101 Y166.882 E77.6659
G1 X217.982 Y167.293 E77.8843
G1 X218.544 Y167.609 E78.0290
G1 X219.754 Y168.417 E78.3556
G1 X220.396 Y168.944 E78.5422
G1 X221.486 Y170.034 E78.8882
G1 X222.010 Y170.671 E79.0733
G1 X222.816 Y171.874 E79.3984
G1 X223.131 Y172.432 E79.5424
G1 X223.551 Y173.326 E79.7641
G1 X223.771 Y173.903 E79.9027
G1 X224.159 Y175.191 E80.2046
G1 X224.297 Y175.819 E80.3491
G1 X224.458 Y176.955 E80.6067
G1 X224.499 Y177.547 E80.7398
G1 X224.499 Y188.402 E83.1769
G1 X224.458 Y188.993 E83.3100
G1 X224.297 Y190.130 E83.5676
G1 X224.159 Y190.758 E83.7120
G1 X223.739 Y192.155 E84.0395
G1 X223.415 Y192.936 E84.2293
G1 X222.684 Y194.299 E84.5766
G1 X222.229 Y194.980 E84.7605
G1 X221.252 Y196.173 E85.1067
G1 X220.659 Y196.766 E85.2948
G1 X219.462 Y197.747 E85.6424
G1 X218.775 Y198.206 E85.8279
G1 X217.415 Y198.933 E86.1741
G1 X216.653 Y199.249 E86.3593
G1 X215.170 Y199.702 E86.7073
G1 X214.337 Y199.867 E86.8980
G1 X212.802 Y200.013 E87.2443
G1 X211.997 Y200.013 E87.4250
G1 X210.463 Y199.867 E87.7709
G1 X209.633 Y199.703 E87.9608
G1 X208.250 Y199.282 E88.2854
G1 X207.675 Y199.060 E88.4237
G1 X206.792 Y198.644 E88.6430
G1 X206.248 Y198.336 E88.7832
G1 X205.047 Y197.534 E89.1075
G1 X204.404 Y197.006 E89.2942
G1 X203.386 Y195.988 E89.6176
G1 X202.981 Y195.519 E89.7565
G1 X202.454 Y194.809 E89.9551
G1 X202.214 Y194.449 E90.0523
G1 X202.006 Y194.100 E90.1435
G1 X201.889 Y194.089 E90.1699
G1 X200.434 Y193.800 E90.5028
G1 X199.628 Y193.555 E90.6920
G1 X198.259 Y192.985 E91.0250
G1 X197.533 Y192.595 E91.2100
G1 X196.336 Y191.795 E91.5332
G1 X195.745 Y191.317 E91.7038
G1 X194.363 Y189.978 E92.1359
G1 X193.267 Y188.220 E92.6010
G1 X192.506 Y185.871 E93.1552
G1 X192.465 Y185.844 E93.1662
G1 X190.419 Y180.814 E94.3855
G1 X189.748 Y179.312 E94.7548
G1 X189.220 Y178.174 E95.0365
G1 X188.336 Y176.420 E95.4774
G1 X187.200 Y174.346 E96.0083
G1 X185.941 Y172.188 E96.5691
G1 X184.375 Y169.783 E97.2134
G1 X182.189 Y166.741 E98.0544
G1 X180.470 Y164.605 E98.6700
G1 X180.387 Y164.499 E98.7003
G1 X180.132 Y164.161 E98.7953
G1 X179.944 Y163.964 E98.8563
G1 X179.841 Y163.852 E98.8906
G1 X177.854 Y161.623 E99.5610
G1 X175.735 Y159.462 E100.2404
G1 X173.649 Y157.494 E100.8844
G1 X173.020 Y156.935 E101.0732
G1 X170.705 Y155.043 E101.7445
G1 X169.362 Y154.014 E102.1243
G1 X168.169 Y153.125 E102.4584
G1 X166.300 Y151.821 E102.9700
G1 X165.419 Y151.238 E103.2073
G1 X162.296 Y149.344 E104.0271
G1 X159.661 Y147.899 E104.7018
G1 X158.909 Y147.508 E104.8921
G1 X155.919 Y146.128 E105.6313
G1 X153.480 Y145.057 E106.2294
G1 X150.379 Y143.834 E106.9780
G1 X146.488 Y142.444 E107.9055
G1 X143.624 Y141.617 E108.5748
G1 X140.310 Y140.756 E109.3434
G1 X138.476 Y140.318 E109.7668
G1 X137.322 Y140.073 E110.0317
G1 X135.402 Y139.677 E110.4717
G1 X133.688 Y139.392 E110.8619
G1 X132.004 Y139.151 E111.2438
G1 X128.560 Y138.709 E112.0233
G1 X125.177 Y138.422 E112.7855
G1 X122.267 Y138.271 E113.4398
G1 X118.503 Y138.237 E114.2847
G1 X113.579 Y138.357 E115.3906
G1 X108.281 Y138.920 E116.5868
G1 X103.078 Y139.686 E117.7675
G1 X96.973 Y141.011 E119.1698
G1 X95.970 Y141.278 E119.4030
G1 X95.290 Y141.508 E119.5641
G1 X95.145 Y141.554 E119.5983
G1 X92.907 Y142.220 E120.1225
G1 X88.632 Y143.666 E121.1357
G1 X86.995 Y144.267 E121.5272
G1 X84.313 Y145.366 E122.1778
G1 X82.738 Y146.052 E122.5636
G1 X81.143 Y146.785 E122.9576
G1 X78.732 Y147.982 E123.5619
G1 X78.726 Y147.983 E123.5633
G1 X76.119 Y149.366 E124.2260
G1 X73.763 Y150.788 E124.8437
G1 X72.321 Y151.743 E125.2319
