;FLAVOR:Marlin
;TIME:4007
;Filament used: 2.96031m
;Layer height: 0.27
;MINX:11.359
;MINY:56.7
;MINZ:0.27
;MAXX:211.641
;MAXY:167.757
;MAXZ:14.31
;Generated with Cura_SteamEngine 4.2.1
M140 S60
M105
M190 S60
M104 S210
M105
M109 S210
M82 ;absolute extrusion mode
G21 ;metric values
G90 ;absolute positioning
M82 ;set extruder to absolute mode
M107 ;start with the fan off
G28 Z0 ;move Z to bottom endstops
G28 X0 Y0 ;move X/Y to endstops
G1 X15 Y0 F4000 ;move X/Y to front of printer
G1 Z15.0 F9000 ;move the platform to 15mm
G92 E0 ;zero the extruded length
G1 F200 E10 ;extrude 10 mm of feed stock
G92 E0 ;zero the extruded length again
G1 F9000
;Put printing message on LCD screen
M117 Printing...
M141 S28
G92 E0
G92 E0
G1 F1500 E-7.5
;LAYER_COUNT:53
;LAYER:0
M107
G0 F7000 X53.233 Y74.791 Z0.27
;TYPE:SKIRT
G1 F1500 E0
G1 F1680 X53.276 Y74.761 E0.00078
G1 X53.945 Y74.302 E0.0128
G1 X54.011 Y74.258 E0.01397
G1 X54.34 Y74.043 E0.01979
G1 X54.384 Y74.015 E0.02056
G1 X55.203 Y73.497 E0.03492
G1 X55.216 Y73.489 E0.03515
G1 X58.087 Y71.691 E0.08533
G1 X58.138 Y71.659 E0.08622
G1 X59.475 Y70.853 E0.10934
G1 X59.568 Y70.799 E0.11094
G1 X60.616 Y70.21 E0.12875
G1 X60.66 Y70.186 E0.12949
G1 X61.379 Y69.795 E0.14161
G1 X63.808 Y68.43 E0.18289
G1 X66.142 Y67.029 E0.22321
G1 X68.421 Y65.575 E0.26326
G1 X70.692 Y64.031 E0.30394
G1 X72.901 Y62.437 E0.34429
G1 X75.061 Y60.783 E0.38459
G1 X77.208 Y59.042 E0.42553
G1 X78.775 Y57.703 E0.45607
G1 X79.203 Y57.39 E0.46392
G1 X79.438 Y57.256 E0.46793
G1 X79.586 Y57.179 E0.4704
G1 X80.074 Y56.97 E0.47826
G1 X80.588 Y56.837 E0.48613
G1 X80.863 Y56.798 E0.49024
G1 X81.575 Y56.727 E0.50084
G1 X81.691 Y56.718 E0.50257
G1 X81.961 Y56.7 E0.50657
G1 X82.608 Y56.716 E0.51616
G1 X85.23 Y57.025 E0.55527
G1 X87.971 Y57.272 E0.59604
G1 X90.661 Y57.437 E0.63596
G1 X93.396 Y57.528 E0.6765
G1 X96.129 Y57.542 E0.71698
G1 X98.865 Y57.477 E0.75752
G1 X101.574 Y57.337 E0.79771
G1 X103.044 Y57.221 E0.81955
G1 X103.056 Y57.22 E0.81973
G1 X104.955 Y57.077 E0.84794
G1 X105.063 Y57.071 E0.84954
G1 X105.982 Y57.03 E0.86317
G1 X106.09 Y57.026 E0.86477
G1 X106.815 Y57.016 E0.87551
G1 X106.914 Y57.016 E0.87698
G1 X107.476 Y57.024 E0.8853
G1 X108.903 Y57.034 E0.90644
G1 X116.272 Y57.033 E1.0156
G1 X116.321 Y57.033 E1.01633
G1 X116.896 Y57.041 E1.02485
G1 X117.01 Y57.045 E1.02654
G1 X117.66 Y57.075 E1.03617
G1 X117.773 Y57.082 E1.03785
G1 X119.724 Y57.235 E1.06684
G1 X122.498 Y57.416 E1.10802
G1 X125.233 Y57.517 E1.14856
G1 X127.969 Y57.54 E1.18909
G1 X130.666 Y57.487 E1.22905
G1 X133.398 Y57.356 E1.26957
G1 X136.14 Y57.146 E1.31031
G1 X139.109 Y56.83 E1.35453
G1 X139.994 Y56.722 E1.36774
G1 X140.598 Y56.7 E1.37669
G1 X140.995 Y56.72 E1.38258
G1 X141.175 Y56.734 E1.38526
G1 X141.529 Y56.77 E1.39053
G1 X141.73 Y56.796 E1.39353
G1 X142.073 Y56.851 E1.39868
G1 X142.589 Y56.975 E1.40654
G1 X143.081 Y57.174 E1.4144
G1 X143.537 Y57.445 E1.42226
G1 X143.802 Y57.65 E1.42722
G1 X144.731 Y58.442 E1.4453
G1 X146.875 Y60.214 E1.48651
G1 X149.033 Y61.9 E1.52707
G1 X151.217 Y63.507 E1.56724
G1 X153.468 Y65.066 E1.6078
G1 X155.744 Y66.551 E1.64806
G1 X158.06 Y67.97 E1.68829
G1 X160.867 Y69.574 E1.73618
G1 X161.831 Y70.103 E1.75247
G1 X161.86 Y70.119 E1.75296
G1 X163.039 Y70.781 E1.77299
G1 X163.094 Y70.813 E1.77394
G1 X164.037 Y71.365 E1.79012
G1 X164.129 Y71.421 E1.79172
G1 X167.937 Y73.809 E1.8583
G1 X167.991 Y73.843 E1.85925
G1 X168.91 Y74.443 E1.8755
G1 X168.993 Y74.5 E1.877
G1 X169.258 Y74.684 E1.88177
G1 X169.285 Y74.702 E1.88226
G1 X171.769 Y76.461 E1.92734
G1 X171.828 Y76.504 E1.92842
G1 X173.517 Y77.753 E1.95954
G1 X173.578 Y77.799 E1.96067
G1 X175.604 Y79.367 E1.99862
G1 X175.633 Y79.39 E1.99917
G1 X176.197 Y79.836 E2.00982
G1 X176.233 Y79.864 E2.0105
G1 X176.961 Y80.455 E2.02439
G1 X177.033 Y80.516 E2.02579
G1 X177.215 Y80.672 E2.02934
G1 X177.231 Y80.685 E2.02964
G1 X180.262 Y83.314 E2.08908
G1 X180.324 Y83.369 E2.09031
G1 X182.014 Y84.906 E2.12415
G1 X182.073 Y84.961 E2.12534
G1 X182.68 Y85.539 E2.13776
G1 X182.699 Y85.557 E2.13815
G1 X183.236 Y86.076 E2.14921
G1 X183.261 Y86.101 E2.14973
G1 X184.347 Y87.172 E2.17233
G1 X184.375 Y87.199 E2.1729
G1 X185.244 Y88.075 E2.19118
G1 X185.28 Y88.113 E2.19196
G1 X186.056 Y88.919 E2.20853
G1 X186.125 Y88.993 E2.21003
G1 X188.307 Y91.393 E2.25808
G1 X188.355 Y91.447 E2.25915
G1 X189.693 Y92.981 E2.2893
G1 X189.739 Y93.034 E2.29034
G1 X191.586 Y95.239 E2.33295
G1 X191.618 Y95.278 E2.3337
G1 X192.704 Y96.612 E2.35918
G1 X192.729 Y96.644 E2.35978
G1 X193.467 Y97.572 E2.37734
G1 X195.239 Y99.676 E2.41809
G1 X197.055 Y101.713 E2.45852
G1 X198.93 Y103.699 E2.49897
G1 X200.841 Y105.611 E2.53902
G1 X202.855 Y107.518 E2.58011
G1 X204.867 Y109.316 E2.62008
G1 X206.918 Y111.029 E2.65966
G1 X206.942 Y111.049 E2.66012
G1 X207.559 Y111.574 E2.67213
G1 X207.936 Y111.948 E2.67999
G1 X208.253 Y112.373 E2.68785
G1 X208.537 Y112.922 E2.697
G1 X208.687 Y113.288 E2.70286
G1 X208.85 Y113.793 E2.71072
G1 X208.936 Y114.317 E2.71859
G1 X208.943 Y114.847 E2.72644
G1 X208.903 Y115.48 E2.73584
G1 X208.894 Y115.597 E2.73757
G1 X208.739 Y117.199 E2.76142
G1 X208.552 Y119.934 E2.80202
G1 X208.446 Y122.629 E2.84198
G1 X208.413 Y125.382 E2.88276
G1 X208.459 Y128.1 E2.92303
G1 X208.58 Y130.795 E2.96299
G1 X208.783 Y133.555 E3.00399
G1 X209.061 Y136.279 E3.04455
G1 X209.412 Y138.96 E3.0846
G1 X209.842 Y141.662 E3.12513
G1 X210.347 Y144.34 E3.1655
G1 X210.932 Y147.02 E3.20613
G1 X211.382 Y148.869 E3.23432
G1 X211.404 Y148.964 E3.23577
G1 X211.503 Y149.426 E3.24277
G1 X211.547 Y149.677 E3.24654
G1 X211.597 Y150.035 E3.2519
G1 X211.631 Y150.465 E3.25829
G1 X211.641 Y151.071 E3.26726
G1 X211.641 Y160.135 E3.40153
G1 X211.631 Y160.833 E3.41187
G1 X211.605 Y161.208 E3.41744
G1 X211.574 Y161.463 E3.42125
G1 X211.559 Y161.573 E3.42289
G1 X211.518 Y161.84 E3.42689
G1 X211.428 Y162.258 E3.43323
G1 X211.285 Y162.767 E3.44106
G1 X211.133 Y163.198 E3.44783
G1 X210.92 Y163.697 E3.45587
G1 X210.687 Y164.15 E3.46341
G1 X210.582 Y164.322 E3.4664
G1 X210.497 Y164.454 E3.46872
G1 X210.293 Y164.757 E3.47413
G1 X210.052 Y165.074 E3.48003
G1 X209.724 Y165.459 E3.48752
G1 X209.395 Y165.796 E3.4945
G1 X209.239 Y165.936 E3.49761
G1 X209.143 Y166.02 E3.4995
G1 X208.926 Y166.201 E3.50368
G1 X208.594 Y166.446 E3.50979
G1 X208.108 Y166.763 E3.51839
G1 X207.593 Y167.041 E3.52706
G1 X207.117 Y167.249 E3.53475
G1 X206.687 Y167.405 E3.54153
G1 X206.173 Y167.554 E3.54946
G1 X205.623 Y167.667 E3.55777
G1 X205.225 Y167.716 E3.56371
G1 X204.825 Y167.742 E3.56965
G1 X204.137 Y167.748 E3.57984
G1 X203.539 Y167.702 E3.58873
G1 X203.318 Y167.666 E3.59205
G1 X203.206 Y167.646 E3.59373
G1 X202.89 Y167.584 E3.5985
G1 X202.485 Y167.479 E3.6047
G1 X201.99 Y167.319 E3.6124
G1 X201.465 Y167.101 E3.62083
G1 X201.005 Y166.865 E3.62848
G1 X200.584 Y166.611 E3.63577
G1 X198.853 Y165.392 E3.66713
G1 X196.548 Y163.812 E3.70853
G1 X194.282 Y162.351 E3.74847
G1 X193.348 Y161.789 E3.76461
G1 X193.309 Y161.765 E3.76529
G1 X191.954 Y160.926 E3.7889
G1 X191.83 Y160.846 E3.79108
G1 X191.497 Y160.62 E3.79705
G1 X191.164 Y160.363 E3.80328
G1 X190.965 Y160.19 E3.80718
G1 X190.592 Y159.813 E3.81504
G1 X190.402 Y159.568 E3.81963
G1 X190.13 Y159.184 E3.8266
G1 X188.522 Y156.976 E3.86707
G1 X186.857 Y154.821 E3.90741
G1 X185.122 Y152.7 E3.948
G1 X183.338 Y150.643 E3.98833
G1 X181.491 Y148.629 E4.02881
G1 X179.583 Y146.666 E4.06936
G1 X177.627 Y144.763 E4.10979
G1 X175.623 Y142.922 E4.1501
G1 X173.562 Y141.133 E4.19053
G1 X171.475 Y139.421 E4.23051
G1 X169.295 Y137.734 E4.27135
G1 X167.094 Y136.128 E4.31171
G1 X164.846 Y134.585 E4.3521
G1 X162.556 Y133.105 E4.39249
G1 X160.209 Y131.681 E4.43315
G1 X157.849 Y130.337 E4.47339
G1 X155.461 Y129.068 E4.51344
G1 X152.979 Y127.837 E4.55448
G1 X150.505 Y126.695 E4.59485
G1 X148.008 Y125.628 E4.63507
G1 X145.442 Y124.615 E4.67594
G1 X142.912 Y123.701 E4.71579
G1 X140.336 Y122.85 E4.75597
G1 X137.68 Y122.054 E4.79705
G1 X135.077 Y121.355 E4.83697
G1 X132.4 Y120.716 E4.87774
G1 X129.721 Y120.155 E4.91829
G1 X127.055 Y119.678 E4.95841
G1 X124.338 Y119.269 E4.99911
G1 X121.664 Y118.944 E5.03901
G1 X118.936 Y118.69 E5.0796
G1 X116.204 Y118.513 E5.12015
G1 X113.472 Y118.414 E5.16065
G1 X110.737 Y118.392 E5.20116
G1 X108.041 Y118.447 E5.24111
G1 X105.304 Y118.58 E5.2817
G1 X102.581 Y118.79 E5.32216
G1 X99.859 Y119.077 E5.3627
G1 X97.144 Y119.441 E5.40328
G1 X94.459 Y119.879 E5.44358
G1 X91.818 Y120.388 E5.48342
G1 X89.087 Y120.993 E5.52486
G1 X86.52 Y121.639 E5.56407
G1 X83.856 Y122.39 E5.60507
G1 X81.219 Y123.213 E5.64599
G1 X78.681 Y124.089 E5.68576
G1 X76.095 Y125.061 E5.72669
G1 X73.586 Y126.086 E5.76684
G1 X71.102 Y127.185 E5.80707
G1 X68.639 Y128.357 E5.84748
G1 X66.17 Y129.622 E5.88857
G1 X63.829 Y130.902 E5.9281
G1 X61.428 Y132.309 E5.96932
G1 X59.151 Y133.729 E6.00907
G1 X56.864 Y135.247 E6.04973
G1 X54.611 Y136.836 E6.09057
G1 X52.444 Y138.458 E6.13067
G1 X50.307 Y140.154 E6.17108
G1 X48.215 Y141.913 E6.21157
G1 X46.2 Y143.707 E6.25154
G1 X44.192 Y145.598 E6.29239
G1 X42.26 Y147.525 E6.33282
G1 X40.384 Y149.505 E6.37322
G1 X38.581 Y151.519 E6.41326
G1 X36.798 Y153.628 E6.45417
G1 X35.111 Y155.74 E6.49421
G1 X32.938 Y158.654 E6.54806
G1 X32.285 Y159.564 E6.56465
G1 X31.944 Y159.971 E6.57252
G1 X31.697 Y160.201 E6.57752
G1 X31.522 Y160.349 E6.58091
G1 X31.433 Y160.421 E6.58261
G1 X31.184 Y160.618 E6.58731
G1 X30.852 Y160.851 E6.59332
G1 X30.469 Y161.088 E6.59999
G1 X28.126 Y162.584 E6.64117
G1 X25.876 Y164.111 E6.68145
G1 X23.207 Y166.046 E6.73029
G1 X22.88 Y166.292 E6.73635
G1 X22.737 Y166.394 E6.73895
G1 X22.356 Y166.652 E6.74577
G1 X21.97 Y166.879 E6.7524
G1 X21.511 Y167.111 E6.76002
G1 X21.003 Y167.32 E6.76815
G1 X20.513 Y167.478 E6.77578
G1 X20.088 Y167.586 E6.78228
G1 X19.582 Y167.682 E6.78991
G1 X19.08 Y167.741 E6.79739
G1 X18.784 Y167.754 E6.80178
G1 X18.629 Y167.757 E6.80408
G1 X18.334 Y167.757 E6.80845
G1 X17.923 Y167.733 E6.81455
G1 X17.42 Y167.674 E6.82205
G1 X16.865 Y167.563 E6.83043
G1 X16.335 Y167.412 E6.8386
G1 X15.897 Y167.255 E6.84549
G1 X15.418 Y167.047 E6.85323
G1 X14.982 Y166.821 E6.8605
G1 X14.799 Y166.709 E6.86368
G1 X14.684 Y166.635 E6.8657
G1 X14.414 Y166.455 E6.87051
G1 X14.094 Y166.214 E6.87645
G1 X13.694 Y165.876 E6.8842
G1 X13.283 Y165.466 E6.8928
G1 X12.916 Y165.034 E6.9012
G1 X12.633 Y164.653 E6.90823
G1 X12.359 Y164.225 E6.91576
G1 X12.11 Y163.763 E6.92353
G1 X12 Y163.517 E6.92752
G1 X11.961 Y163.426 E6.92899
G1 X11.884 Y163.24 E6.93197
G1 X11.77 Y162.923 E6.93696
G1 X11.606 Y162.387 E6.94527
G1 X11.482 Y161.813 E6.95397
G1 X11.411 Y161.27 E6.96208
G1 X11.381 Y160.871 E6.968
G1 X11.368 Y160.08 E6.97972
G1 X11.368 Y160.029 E6.98048
G1 X11.359 Y155.301 E7.05052
G1 X11.359 Y151.187 E7.11146
G1 X11.369 Y150.489 E7.1218
G1 X11.401 Y150.065 E7.1281
G1 X11.474 Y149.527 E7.13614
G1 X11.539 Y149.18 E7.14137
G1 X11.677 Y148.604 E7.15014
G1 X12.279 Y145.926 E7.1908
G1 X12.8 Y143.265 E7.23097
G1 X13.249 Y140.553 E7.27169
G1 X13.62 Y137.858 E7.31199
G1 X13.91 Y135.176 E7.35195
G1 X14.13 Y132.419 E7.39292
G1 X14.27 Y129.719 E7.43297
G1 X14.334 Y126.984 E7.4735
G1 X14.32 Y124.252 E7.51397
G1 X14.228 Y121.515 E7.55453
G1 X14.062 Y118.824 E7.59447
G1 X13.809 Y116.02 E7.63618
G1 X13.704 Y115.024 E7.65101
G1 X13.689 Y114.493 E7.65888
G1 X13.753 Y113.966 E7.66675
G1 X13.98 Y113.243 E7.67797
G1 X14.163 Y112.824 E7.68474
G1 X14.411 Y112.355 E7.6926
G1 X14.727 Y111.929 E7.70046
G1 X15.146 Y111.519 E7.70914
G1 X15.974 Y110.834 E7.72506
G1 X18.052 Y109.071 E7.76543
G1 X20.08 Y107.249 E7.80582
G1 X22.077 Y105.351 E7.84663
G1 X24.008 Y103.408 E7.88721
G1 X25.851 Y101.445 E7.92709
G1 X27.652 Y99.414 E7.9673
G1 X29.895 Y96.719 E8.01924
G1 X31.99 Y94.116 E8.06874
G1 X32.015 Y94.086 E8.06932
G1 X32.355 Y93.673 E8.07724
G1 X32.383 Y93.638 E8.07791
G1 X33.031 Y92.871 E8.09278
G1 X33.104 Y92.788 E8.09442
G1 X36.077 Y89.484 E8.16026
G1 X36.139 Y89.417 E8.16161
G1 X37.529 Y87.951 E8.19154
G1 X37.581 Y87.897 E8.19265
G1 X38.323 Y87.147 E8.20828
G1 X38.374 Y87.096 E8.20934
G1 X39.816 Y85.697 E8.23911
G1 X39.867 Y85.649 E8.24014
G1 X41.741 Y83.901 E8.2781
G1 X41.794 Y83.852 E8.27917
G1 X43.347 Y82.462 E8.31005
G1 X43.402 Y82.414 E8.31113
G1 X45.576 Y80.548 E8.35357
G1 X45.609 Y80.52 E8.35421
G1 X46.248 Y79.985 E8.36656
G1 X46.324 Y79.923 E8.36801
G1 X46.659 Y79.658 E8.37434
G1 X46.691 Y79.633 E8.37494
G1 X49.089 Y77.781 E8.41982
G1 X49.147 Y77.737 E8.4209
G1 X50.8 Y76.514 E8.45136
G1 X50.86 Y76.471 E8.45245
G1 X53.233 Y74.791 E8.49552
G0 F7000 X53.435 Y75.077
G1 F1680 X53.474 Y75.05 E8.49622
G1 X54.143 Y74.591 E8.50824
G1 X54.202 Y74.551 E8.5093
G1 X54.531 Y74.336 E8.51512
G1 X54.571 Y74.311 E8.51582
G1 X55.39 Y73.793 E8.53017
G1 X55.402 Y73.785 E8.53039
G1 X58.273 Y71.987 E8.58057
G1 X58.319 Y71.959 E8.58137
G1 X59.656 Y71.153 E8.60449
G1 X59.739 Y71.104 E8.60592
G1 X60.787 Y70.515 E8.62373
G1 X60.827 Y70.493 E8.6244
G1 X61.559 Y70.095 E8.63675
G1 X63.99 Y68.729 E8.67805
G1 X66.325 Y67.327 E8.7184
G1 X68.612 Y65.868 E8.75858
G1 X70.89 Y64.319 E8.79939
G1 X73.125 Y62.706 E8.84022
G1 X75.3 Y61.041 E8.8808
G1 X77.429 Y59.314 E8.92141
G1 X79.003 Y57.969 E8.95207
G1 X79.6 Y57.566 E8.96274
G1 X79.748 Y57.489 E8.96522
G1 X80.211 Y57.293 E8.97266
G1 X80.898 Y57.147 E8.98307
G1 X81.61 Y57.076 E8.99367
G1 X81.714 Y57.067 E8.99521
G1 X81.984 Y57.049 E8.99922
G1 X82.567 Y57.064 E9.00786
G1 X85.195 Y57.374 E9.04706
G1 X87.918 Y57.62 E9.08756
G1 X90.662 Y57.788 E9.12828
G1 X93.383 Y57.878 E9.16861
G1 X96.136 Y57.892 E9.2094
G1 X98.856 Y57.827 E9.2497
G1 X101.621 Y57.684 E9.29071
G1 X103.072 Y57.57 E9.31227
G1 X103.083 Y57.569 E9.31244
G1 X104.982 Y57.426 E9.34065
G1 X105.078 Y57.42 E9.34207
G1 X105.997 Y57.379 E9.3557
G1 X106.095 Y57.376 E9.35715
G1 X106.82 Y57.366 E9.36789
G1 X106.909 Y57.366 E9.36921
G1 X107.471 Y57.374 E9.37754
G1 X108.901 Y57.384 E9.39872
G1 X116.272 Y57.383 E9.50791
G1 X116.316 Y57.383 E9.50856
G1 X116.891 Y57.391 E9.51708
G1 X116.993 Y57.394 E9.51859
G1 X117.643 Y57.424 E9.52823
G1 X117.746 Y57.431 E9.52976
G1 X119.724 Y57.586 E9.55915
G1 X122.465 Y57.765 E9.59984
G1 X125.217 Y57.866 E9.64063
G1 X127.973 Y57.89 E9.68146
G1 X130.69 Y57.837 E9.72172
G1 X133.407 Y57.706 E9.76201
G1 X136.17 Y57.495 E9.80306
G1 X139.135 Y57.179 E9.84723
G1 X140.036 Y57.069 E9.86067
G1 X140.581 Y57.05 E9.86875
G1 X140.978 Y57.07 E9.87464
G1 X141.139 Y57.082 E9.87703
G1 X141.493 Y57.118 E9.8823
G1 X141.675 Y57.142 E9.88502
G1 X142.018 Y57.197 E9.89017
G1 X142.507 Y57.316 E9.89762
G1 X142.971 Y57.511 E9.90508
G1 X143.575 Y57.916 E9.91585
G1 X144.529 Y58.729 E9.93442
G1 X146.664 Y60.494 E9.97545
G1 X148.803 Y62.165 E10.01566
G1 X151.014 Y63.791 E10.05632
G1 X153.271 Y65.356 E10.097
G1 X155.555 Y66.846 E10.1374
G1 X157.897 Y68.28 E10.17808
G1 X160.705 Y69.884 E10.22598
G1 X161.662 Y70.41 E10.24216
G1 X161.688 Y70.425 E10.2426
G1 X162.867 Y71.087 E10.26263
G1 X162.917 Y71.115 E10.26348
G1 X163.86 Y71.667 E10.27967
G1 X163.943 Y71.717 E10.2811
G1 X167.751 Y74.105 E10.34769
G1 X167.8 Y74.136 E10.34855
G1 X168.719 Y74.736 E10.3648
G1 X168.794 Y74.787 E10.36615
G1 X169.059 Y74.971 E10.37093
G1 X169.083 Y74.988 E10.37136
G1 X171.567 Y76.747 E10.41645
G1 X171.62 Y76.785 E10.41742
G1 X173.309 Y78.034 E10.44853
G1 X173.364 Y78.076 E10.44956
G1 X175.39 Y79.644 E10.48751
G1 X175.416 Y79.665 E10.488
G1 X175.98 Y80.111 E10.49865
G1 X176.012 Y80.136 E10.49926
G1 X176.74 Y80.727 E10.51315
G1 X176.805 Y80.781 E10.5144
G1 X176.987 Y80.937 E10.51795
G1 X177.001 Y80.95 E10.51823
G1 X180.032 Y83.579 E10.57767
G1 X180.088 Y83.628 E10.57877
G1 X181.778 Y85.165 E10.61261
G1 X181.831 Y85.215 E10.61369
G1 X182.438 Y85.793 E10.6261
G1 X182.455 Y85.809 E10.62645
G1 X182.992 Y86.328 E10.63751
G1 X183.015 Y86.35 E10.63798
G1 X184.101 Y87.421 E10.66058
G1 X184.126 Y87.446 E10.6611
G1 X184.995 Y88.322 E10.67938
G1 X185.028 Y88.356 E10.68008
G1 X185.804 Y89.162 E10.69666
G1 X185.866 Y89.228 E10.698
G1 X188.048 Y91.628 E10.74605
G1 X188.092 Y91.677 E10.74702
G1 X189.43 Y93.211 E10.77718
G1 X189.471 Y93.259 E10.77811
G1 X191.318 Y95.464 E10.82072
G1 X191.346 Y95.499 E10.82138
G1 X192.432 Y96.833 E10.84686
G1 X192.455 Y96.861 E10.8474
G1 X193.219 Y97.822 E10.86559
