; generated by PrusaSlicer 2.2.0+ on 2020-04-12 at 09:27:36 UTC

; 

; external perimeters extrusion width = 0.55mm
; perimeters extrusion width = 0.55mm
; infill extrusion width = 0.55mm
; solid infill extrusion width = 0.55mm
; top infill extrusion width = 0.50mm
; first layer extrusion width = 0.42mm

; external perimeters extrusion width = 0.55mm
; perimeters extrusion width = 0.55mm
; infill extrusion width = 0.55mm
; solid infill extrusion width = 0.55mm
; top infill extrusion width = 0.50mm
; first layer extrusion width = 0.42mm

; external perimeters extrusion width = 0.55mm
; perimeters extrusion width = 0.55mm
; infill extrusion width = 0.55mm
; solid infill extrusion width = 0.55mm
; top infill extrusion width = 0.50mm
; first layer extrusion width = 0.42mm

M201 X9000 Y9000 Z500 E10000 ; sets maximum accelerations, mm/sec^2
M203 X500 Y500 Z12 E120 ; sets maximum feedrates, mm/sec
M204 P1500 R1500 T1500 ; sets acceleration (P, T) and retract acceleration (R), mm/sec^2
M205 X5.00 Y5.00 Z0.20 E2.50 ; sets the jerk limits, mm/sec
M205 S0 T0 ; sets the minimum extruding and travel feed rate, mm/sec
M107
M140 S85 ; Set Bed temperature
M104 S265 ; Set Hotend temperature
G28 W ; home printer without mesh bed leveling
G1 X-2.0 ; move outside Home
G21  ; set units to millimeters
G91 ; use relative coordinates
M83  ; extruder relative mode
M190 S85 ; wait for bed temp
M109 S265 ; wait for extruder temp
G1 Z5 F5000  ; Lift Z before home
G80 N7 R1 ; mesh bed leveling
G1 Y-3.0 F9000.0 ; go outside print area
G92 E0.0
G1 X30.0 E6.0  F1000.0 ; intro line
G92 E0.0
M221 S85 ; set flow to 85 %
G21 ; set units to millimeters
G90 ; use absolute coordinates
M83 ; use relative distances for extrusion
M900 K37; Filament gcode
;BEFORE_LAYER_CHANGE

M220 S100 ; set speed to 100 %









;0.2

G1 E-2.00000 F3300.00000
G1 Z0.600 F15000.000
;AFTER_LAYER_CHANGE
;0.2
G1 X34.885 Y150.465
G1 Z0.200
G1 E2.00000 F3300.00000
M204 S1200
G1 F3600.000
G1 X36.405 Y150.465 E0.04718
G1 X36.405 Y150.599 E0.00416
G1 X34.885 Y150.599 E0.04718
G1 X34.885 Y155.436 E0.15015
G1 X34.835 Y155.846 E0.01281
G1 X34.677 Y156.371 E0.01704
G1 X34.217 Y157.138 E0.02776
G1 X34.081 Y157.288 E0.00629
G1 X33.359 Y157.826 E0.02793
G1 X32.955 Y157.997 E0.01362
G1 X32.546 Y158.105 E0.01314
G1 X32.030 Y158.152 E0.01607
G1 X31.611 Y158.120 E0.01304
G1 X31.210 Y158.032 E0.01275
G1 X30.705 Y157.824 E0.01695
G1 X29.984 Y157.287 E0.02790
G1 X29.847 Y157.137 E0.00630
G1 X29.389 Y156.371 E0.02771
G1 X29.230 Y155.847 E0.01699
G1 X29.171 Y155.334 E0.01603
G1 X29.171 Y145.374 E0.30918
G1 X29.230 Y144.861 E0.01603
G1 X29.389 Y144.337 E0.01699
G1 X29.847 Y143.569 E0.02775
G1 X30.002 Y143.399 E0.00713
G1 X30.331 Y143.120 E0.01340
G1 X30.680 Y142.896 E0.01288
G1 X31.209 Y142.676 E0.01778
G1 X31.611 Y142.590 E0.01275
G1 X32.029 Y142.556 E0.01300
G1 X32.591 Y142.610 E0.01753
G1 X33.084 Y142.760 E0.01602
G1 X33.463 Y142.943 E0.01305
G1 X33.842 Y143.203 E0.01428
G1 X34.239 Y143.598 E0.01737
G1 X34.553 Y144.086 E0.01803
G1 X34.669 Y144.312 E0.00788
G1 X34.835 Y144.862 E0.01784
G1 X34.885 Y145.272 E0.01281
G1 X34.885 Y150.405 E0.15934
M204 S1500
G1 X35.262 Y150.088 F15000.000
M204 S1200
G1 F3600.000
G1 X36.782 Y150.088 E0.04718
G1 X36.782 Y150.976 E0.02756
G1 X35.262 Y150.976 E0.04718
G1 X35.262 Y155.459 E0.13916
G1 X35.205 Y155.923 E0.01452
G1 X35.024 Y156.525 E0.01950
G1 X34.521 Y157.364 E0.03037
G1 X34.335 Y157.569 E0.00858
G1 X33.548 Y158.156 E0.03047
G1 X33.077 Y158.355 E0.01587
G1 X32.611 Y158.478 E0.01495
G1 X32.033 Y158.531 E0.01804
G1 X31.556 Y158.493 E0.01484
G1 X31.097 Y158.393 E0.01459
G1 X30.518 Y158.154 E0.01944
G1 X29.730 Y157.568 E0.03048
G1 X29.543 Y157.364 E0.00861
G1 X29.042 Y156.525 E0.03033
G1 X28.859 Y155.924 E0.01948
G1 X28.794 Y155.356 E0.01776
G1 X28.794 Y145.352 E0.31052
G1 X28.859 Y144.784 E0.01776
G1 X29.042 Y144.183 E0.01948
G1 X29.543 Y143.343 E0.03036
G1 X29.739 Y143.128 E0.00906
G1 X30.106 Y142.816 E0.01493
G1 X30.505 Y142.561 E0.01469
G1 X31.097 Y142.315 E0.01989
G1 X31.556 Y142.216 E0.01458
G1 X32.031 Y142.178 E0.01480
G1 X32.664 Y142.238 E0.01973
G1 X33.222 Y142.407 E0.01810
G1 X33.653 Y142.616 E0.01485
G1 X34.084 Y142.912 E0.01623
G1 X34.534 Y143.360 E0.01970
G1 X34.880 Y143.898 E0.01986
G1 X35.020 Y144.170 E0.00952
G1 X35.205 Y144.785 E0.01992
G1 X35.262 Y145.249 E0.01452
G1 X35.262 Y150.028 E0.14835
M204 S1500
G1 X35.263 Y150.488 F15000.000
G1 F12000.000
G1 X36.782 Y150.088 E-0.39741
G1 X36.782 Y150.976 E-0.23200
G1 X35.262 Y150.976 E-0.39710
G1 X35.262 Y154.320 E-0.87350
G1 E-0.10000 F3300.00000
G1 Z0.800 F15000.000
G1 X29.591 Y156.503
G1 Z0.200
G1 E2.00000 F3300.00000
M204 S1200
G1 F3600.000
G1 X30.171 Y157.084 E0.02564
G1 X30.842 Y157.582 E0.02608
G1 X31.292 Y157.768 E0.01521
G1 X31.420 Y157.796 E0.00409
G1 X29.538 Y155.914 E0.08311
G1 X29.500 Y155.791 E0.00399
G1 X29.446 Y155.286 E0.01587
G1 X32.036 Y157.875 E0.11432
G1 X32.523 Y157.826 E0.01529
G1 X29.446 Y154.750 E0.13583
G1 X29.446 Y154.213 E0.01674
G1 X32.938 Y157.705 E0.15417
G1 X33.222 Y157.586 E0.00960
G1 X33.298 Y157.529 E0.00297
G1 X29.446 Y153.677 E0.17005
G1 X29.446 Y153.141 E0.01674
G1 X33.605 Y157.300 E0.18361
G1 X33.909 Y157.068 E0.01195
G1 X29.446 Y152.604 E0.19704
G1 X29.446 Y152.068 E0.01674
G1 X34.129 Y156.750 E0.20672
G1 X34.330 Y156.415 E0.01221
G1 X29.446 Y151.532 E0.21559
G1 X29.446 Y150.995 E0.01674
G1 X34.489 Y156.038 E0.22265
G1 X34.565 Y155.789 E0.00814
G1 X34.588 Y155.600 E0.00593
G1 X29.446 Y150.459 E0.22698
G1 X29.446 Y149.923 E0.01674
G1 X34.610 Y155.086 E0.22796
G1 X34.610 Y154.550 E0.01674
G1 X29.446 Y149.386 E0.22796
G1 X29.446 Y148.850 E0.01674
G1 X34.610 Y154.014 E0.22796
G1 X34.610 Y153.477 E0.01674
G1 X29.446 Y148.314 E0.22796
G1 X29.446 Y147.778 E0.01674
G1 X34.610 Y152.941 E0.22796
G1 X34.610 Y152.405 E0.01674
G1 X29.446 Y147.241 E0.22796
G1 X29.446 Y146.705 E0.01674
G1 X34.610 Y151.868 E0.22796
G1 X34.610 Y151.332 E0.01674
G1 X29.446 Y146.169 E0.22796
G1 X29.446 Y145.632 E0.01674
G1 X34.610 Y150.796 E0.22796
G1 X34.610 Y150.259 E0.01674
G1 X29.476 Y145.126 E0.22663
G1 X29.500 Y144.917 E0.00658
G1 X29.571 Y144.684 E0.00758
G1 X34.610 Y149.723 E0.22245
G1 X34.610 Y149.187 E0.01674
G1 X29.728 Y144.305 E0.21550
G1 X29.929 Y143.970 E0.01221
G1 X34.610 Y148.650 E0.20665
G1 X34.610 Y148.114 E0.01674
G1 X30.146 Y143.650 E0.19708
G1 X30.430 Y143.398 E0.01186
G1 X34.610 Y147.578 E0.18455
G1 X34.610 Y147.041 E0.01674
G1 X30.748 Y143.180 E0.17049
G1 X31.117 Y143.013 E0.01265
G1 X34.610 Y146.505 E0.15419
G1 X34.610 Y145.969 E0.01674
G1 X31.530 Y142.889 E0.13596
G1 X32.011 Y142.834 E0.01511
G1 X34.610 Y145.433 E0.11473
G1 X34.610 Y145.289 E0.00449
G1 X34.565 Y144.919 E0.01162
G1 X34.535 Y144.822 E0.00318
G1 X32.620 Y142.906 E0.08456
G1 X32.984 Y143.017 E0.01187
G1 X33.324 Y143.181 E0.01180
G1 X33.665 Y143.415 E0.01291
G1 X34.538 Y144.289 E0.03855
M204 S1500
G1 F12000.000
G1 X33.665 Y143.415 E-0.32258
G1 X33.324 Y143.181 E-0.10807
G1 X32.984 Y143.017 E-0.09874
G1 X32.620 Y142.906 E-0.09937
G1 X34.535 Y144.822 E-0.70761
G1 X34.565 Y144.919 E-0.02659
G1 X34.610 Y145.289 E-0.09724
G1 X34.610 Y145.433 E-0.03759
G1 X33.521 Y144.344 E-0.40222
G1 E-0.10000 F3300.00000
G1 Z0.800 F15000.000
G1 X213.409 Y150.465
G1 Z0.200
G1 E2.00000 F3300.00000
M204 S1200
G1 F3600.000
G1 X215.111 Y150.465 E0.05283
G1 X215.111 Y145.287 E0.16072
G1 X215.162 Y144.858 E0.01343
G1 X215.328 Y144.316 E0.01758
G1 X215.518 Y143.941 E0.01304
G1 X215.740 Y143.621 E0.01210
G1 X216.392 Y143.031 E0.02729
G1 X216.893 Y142.774 E0.01748
G1 X217.149 Y142.672 E0.00855
G1 X217.368 Y142.617 E0.00701
G1 X218.286 Y142.575 E0.02854
G1 X218.488 Y142.603 E0.00631
G1 X219.316 Y142.900 E0.02731
G1 X219.897 Y143.313 E0.02213
G1 X220.168 Y143.593 E0.01208
G1 X220.542 Y144.181 E0.02163
G1 X220.597 Y144.298 E0.00402
G1 X220.766 Y144.861 E0.01825
G1 X220.827 Y145.372 E0.01597
G1 X220.827 Y155.336 E0.30930
G1 X220.766 Y155.847 E0.01597
G1 X220.603 Y156.389 E0.01758
G1 X220.348 Y156.866 E0.01678
G1 X219.761 Y157.516 E0.02718
G1 X219.328 Y157.805 E0.01618
G1 X218.487 Y158.106 E0.02772
G1 X218.285 Y158.134 E0.00632
G1 X217.369 Y158.092 E0.02848
G1 X217.148 Y158.035 E0.00708
G1 X216.743 Y157.877 E0.01347
G1 X216.372 Y157.669 E0.01321
G1 X216.089 Y157.449 E0.01114
G1 X215.755 Y157.110 E0.01475
G1 X215.518 Y156.765 E0.01300
G1 X215.327 Y156.389 E0.01310
G1 X215.184 Y155.938 E0.01467
G1 X215.111 Y155.415 E0.01640
G1 X215.111 Y150.599 E0.14949
G1 X213.409 Y150.599 E0.05283
G1 X213.409 Y150.525 E0.00229
M204 S1500
G1 F12000.000
G1 X215.111 Y150.465 E-0.44493
G1 X215.111 Y145.287 E-1.35271
G1 X215.157 Y144.898 E-0.10237
G1 E-0.10000 F3300.00000
G1 Z0.800 F15000.000
G1 X214.734 Y150.976
G1 Z0.200
G1 E2.00000 F3300.00000
M204 S1200
G1 F3600.000
G1 X213.032 Y150.976 E0.05283
G1 X213.032 Y150.088 E0.02756
G1 X214.734 Y150.088 E0.05283
G1 X214.734 Y145.265 E0.14971
G1 X214.791 Y144.780 E0.01517
G1 X214.977 Y144.175 E0.01964
G1 X215.193 Y143.748 E0.01484
G1 X215.454 Y143.370 E0.01426
G1 X216.176 Y142.718 E0.03019
G1 X216.737 Y142.430 E0.01959
G1 X217.033 Y142.313 E0.00987
G1 X217.312 Y142.242 E0.00896
G1 X218.303 Y142.197 E0.03080
G1 X218.578 Y142.234 E0.00860
G1 X219.492 Y142.563 E0.03015
G1 X220.144 Y143.026 E0.02482
G1 X220.465 Y143.358 E0.01435
G1 X220.873 Y143.999 E0.02357
G1 X220.950 Y144.163 E0.00563
G1 X221.137 Y144.784 E0.02013
G1 X221.204 Y145.350 E0.01768
G1 X221.204 Y155.358 E0.31068
G1 X221.137 Y155.924 E0.01768
G1 X220.953 Y156.534 E0.01978
G1 X220.658 Y157.084 E0.01937
G1 X220.010 Y157.803 E0.03006
G1 X219.498 Y158.145 E0.01909
G1 X218.577 Y158.474 E0.03036
G1 X218.303 Y158.513 E0.00861
G1 X217.313 Y158.466 E0.03076
G1 X217.032 Y158.395 E0.00900
G1 X216.582 Y158.219 E0.01501
G1 X216.163 Y157.984 E0.01490
G1 X215.838 Y157.731 E0.01280
G1 X215.463 Y157.351 E0.01655
G1 X215.193 Y156.958 E0.01480
G1 X214.977 Y156.532 E0.01483
G1 X214.815 Y156.022 E0.01662
G1 X214.734 Y155.441 E0.01820
G1 X214.734 Y151.036 E0.13673
M204 S1500
G1 X214.732 Y150.576 F15000.000
G1 F12000.000
G1 X213.032 Y150.976 E-0.44493
G1 X213.032 Y150.088 E-0.23200
G1 X214.734 Y150.088 E-0.44465
G1 X214.734 Y147.108 E-0.77843
G1 E-0.10000 F3300.00000
G1 Z0.800 F15000.000
G1 X220.471 Y144.279
G1 Z0.200
G1 E2.00000 F3300.00000
M204 S1200
G1 F3600.000
G1 X219.713 Y143.520 E0.03350
G1 X219.188 Y143.147 E0.02009
G1 X218.596 Y142.939 E0.01960
G1 X220.463 Y144.806 E0.08242
G1 X220.496 Y144.917 E0.00361
G1 X220.552 Y145.432 E0.01616
G1 X217.984 Y142.865 E0.11334
G1 X217.471 Y142.888 E0.01604
G1 X220.552 Y145.968 E0.13600
G1 X220.552 Y146.504 E0.01674
G1 X217.053 Y143.006 E0.15444
G1 X216.695 Y143.184 E0.01249
G1 X220.552 Y147.041 E0.17024
G1 X220.552 Y147.577 E0.01674
G1 X216.384 Y143.409 E0.18400
G1 X216.102 Y143.664 E0.01185
G1 X220.552 Y148.113 E0.19643
G1 X220.552 Y148.650 E0.01674
G1 X215.849 Y143.947 E0.20762
G1 X215.755 Y144.082 E0.00515
G1 X215.652 Y144.286 E0.00713
G1 X220.552 Y149.186 E0.21631
G1 X220.552 Y149.722 E0.01674
G1 X215.506 Y144.676 E0.22277
G1 X215.432 Y144.915 E0.00779
G1 X215.409 Y145.115 E0.00631
G1 X220.552 Y150.258 E0.22705
G1 X220.552 Y150.795 E0.01674
G1 X215.386 Y145.629 E0.22804
G1 X215.386 Y146.166 E0.01674
G1 X220.552 Y151.331 E0.22804
G1 X220.552 Y151.867 E0.01674
G1 X215.386 Y146.702 E0.22804
G1 X215.386 Y147.238 E0.01674
G1 X220.552 Y152.404 E0.22804
G1 X220.552 Y152.940 E0.01674
G1 X215.386 Y147.775 E0.22804
G1 X215.386 Y148.311 E0.01674
G1 X220.552 Y153.476 E0.22804
G1 X220.552 Y154.013 E0.01674
G1 X215.386 Y148.847 E0.22804
G1 X215.386 Y149.383 E0.01674
G1 X220.552 Y154.549 E0.22804
G1 X220.552 Y155.085 E0.01674
G1 X215.386 Y149.920 E0.22804
G1 X215.386 Y150.456 E0.01674
G1 X220.520 Y155.590 E0.22663
G1 X220.496 Y155.791 E0.00633
G1 X220.424 Y156.030 E0.00780
G1 X215.386 Y150.992 E0.22240
G1 X215.386 Y151.529 E0.01674
G1 X220.276 Y156.418 E0.21584
G1 X220.121 Y156.706 E0.01022
G1 X220.077 Y156.755 E0.00206
G1 X215.386 Y152.065 E0.20706
G1 X215.386 Y152.601 E0.01674
G1 X219.822 Y157.037 E0.19584
G1 X219.565 Y157.316 E0.01185
G1 X215.386 Y153.138 E0.18447
G1 X215.386 Y153.674 E0.01674
G1 X219.243 Y157.531 E0.17028
G1 X218.857 Y157.681 E0.01293
G1 X215.386 Y154.210 E0.15324
G1 X215.386 Y154.746 E0.01674
G1 X218.462 Y157.822 E0.13579
G1 X218.272 Y157.858 E0.00604
G1 X217.947 Y157.843 E0.01017
G1 X215.386 Y155.283 E0.11303
G1 X215.386 Y155.396 E0.00353
G1 X215.457 Y155.890 E0.01558
G1 X217.377 Y157.810 E0.08476
G1 X217.232 Y157.773 E0.00467
G1 X216.861 Y157.628 E0.01243
G1 X216.525 Y157.439 E0.01205
G1 X216.278 Y157.247 E0.00975
G1 X215.471 Y156.440 E0.03562
M204 S1500
G1 F12000.000
G1 X216.278 Y157.247 E-0.29808
G1 X216.525 Y157.439 E-0.08157
G1 X216.861 Y157.628 E-0.10083
G1 X217.232 Y157.773 E-0.10399
G1 X217.377 Y157.810 E-0.03907
G1 X215.457 Y155.890 E-0.70931
G1 X215.386 Y155.396 E-0.13037
G1 X215.386 Y155.283 E-0.02955
G1 X216.489 Y156.385 E-0.40723
G1 E-0.10000 F3300.00000
G1 Z0.800 F15000.000
G1 X205.804 Y146.845
G1 Z0.200
G1 E2.00000 F3300.00000
M204 S1200
G1 F3600.000
G1 X205.610 Y146.846 E0.00603
G1 X205.328 Y146.161 E0.02300
G1 X205.262 Y145.858 E0.00961
G1 X204.376 Y143.910 E0.06643
G1 X204.211 Y143.505 E0.01357
G1 X203.033 Y141.053 E0.08445
G1 X200.946 Y137.063 E0.13978
G1 X200.425 Y136.146 E0.03273
G1 X199.459 Y134.529 E0.05847
G1 X198.544 Y133.184 E0.05049
G1 X196.351 Y129.873 E0.12326
G1 X195.885 Y129.249 E0.02418
G1 X192.895 Y125.414 E0.15097
G1 X192.249 Y124.739 E0.02898
G1 X190.949 Y123.210 E0.06233
G1 X190.739 Y123.084 E0.00756
G1 X188.134 Y120.376 E0.11664
G1 X187.737 Y119.981 E0.01740
G1 X187.183 Y119.475 E0.02328
G1 X187.153 Y119.392 E0.00275
G1 X185.373 Y117.788 E0.07436
G1 X184.863 Y117.390 E0.02010
G1 X182.775 Y115.529 E0.08683
G1 X181.680 Y114.628 E0.04402
G1 X179.104 Y112.801 E0.09801
G1 X176.020 Y110.698 E0.11589
G1 X174.431 Y109.704 E0.05818
G1 X171.665 Y108.023 E0.10047
G1 X170.855 Y107.645 E0.02774
G1 X169.034 Y106.692 E0.06381
G1 X168.646 Y106.452 E0.01417
G1 X167.183 Y105.772 E0.05008
G1 X167.077 Y105.753 E0.00334
G1 X165.502 Y104.995 E0.05423
G1 X162.098 Y103.544 E0.11489
G1 X158.737 Y102.245 E0.11182
G1 X155.254 Y101.043 E0.11438
G1 X152.888 Y100.280 E0.07717
G1 X149.827 Y99.449 E0.09844
G1 X146.780 Y98.665 E0.09769
G1 X146.153 Y98.563 E0.01970
G1 X145.267 Y98.331 E0.02842
G1 X143.310 Y97.967 E0.06182
G1 X140.690 Y97.510 E0.08253
G1 X137.916 Y97.102 E0.08705
G1 X135.118 Y96.739 E0.08756
G1 X132.949 Y96.564 E0.06756
G1 X129.485 Y96.334 E0.10777
G1 X125.738 Y96.214 E0.11637
G1 X124.133 Y96.214 E0.04980
G1 X121.770 Y96.313 E0.07341
G1 X118.301 Y96.417 E0.10774
G1 X114.430 Y96.769 E0.12064
G1 X111.412 Y97.093 E0.09422
G1 X110.772 Y97.231 E0.02033
G1 X106.076 Y97.953 E0.14748
G1 X105.917 Y98.022 E0.00538
G1 X105.379 Y98.164 E0.01726
G1 X102.510 Y98.772 E0.09103
G1 X99.752 Y99.465 E0.08827
G1 X94.537 Y100.998 E0.16875
G1 X93.392 Y101.352 E0.03719
G1 X92.147 Y101.802 E0.04108
G1 X91.348 Y102.066 E0.02613
G1 X88.121 Y103.286 E0.10709
G1 X85.711 Y104.323 E0.08145
G1 X81.016 Y106.491 E0.16051
G1 X79.279 Y107.389 E0.06070
G1 X77.617 Y108.281 E0.05857
G1 X77.076 Y108.602 E0.01950
G1 X76.082 Y109.239 E0.03665
G1 X72.849 Y111.189 E0.11721
G1 X71.277 Y112.233 E0.05857
G1 X67.956 Y114.701 E0.12846
G1 X65.368 Y116.850 E0.10440
G1 X63.096 Y118.836 E0.09367
G1 X59.614 Y122.314 E0.15277
G1 X57.460 Y124.712 E0.10006
G1 X55.576 Y126.851 E0.08849
G1 X54.754 Y127.870 E0.04063
G1 X53.844 Y129.126 E0.04815
G1 X51.976 Y131.843 E0.10234
G1 X48.684 Y136.993 E0.18972
G1 X48.204 Y137.842 E0.03029
G1 X47.287 Y139.729 E0.06513
G1 X46.998 Y140.261 E0.01878
G1 X45.670 Y143.014 E0.09489
G1 X44.874 Y144.864 E0.06252
G1 X44.759 Y145.080 E0.00757
G1 X44.389 Y146.043 E0.03204
G1 X43.614 Y147.934 E0.06344
G1 X43.421 Y147.941 E0.00599
G1 X43.962 Y146.504 E0.04764
G1 X44.984 Y144.048 E0.08258
G1 X47.286 Y139.246 E0.16531
G1 X48.589 Y136.862 E0.08432
G1 X51.337 Y132.397 E0.16276
G1 X56.107 Y125.973 E0.24837
G1 X59.644 Y121.995 E0.16521
G1 X61.507 Y120.102 E0.08243
G1 X63.434 Y118.282 E0.08231
G1 X67.494 Y114.830 E0.16542
G1 X71.767 Y111.679 E0.16479
G1 X73.998 Y110.208 E0.08295
G1 X76.271 Y108.825 E0.08259
