;FLAVOR:Marlin
;TIME:3781
;Filament used: 9.30306m
;Layer height: 0.3
;MINX:20.22
;MINY:65.002
;MINZ:0.2
;MAXX:214.78
;MAXY:170.896
;MAXZ:17.3
;Generated with Cura_SteamEngine 4.5.0
M140 S80
M105
M190 S80
M104 S250
M105
M109 S250
M82 ;absolute extrusion mode
; Ender 3 Custom Start G-code
G92 E0 ; Reset Extruder
G28 ; Home all axes
G1 Z2.0 F3000 ; Move Z Axis up little to prevent scratching of Heat Bed
G1 X0.1 Y20 Z0.3 F5000.0 ; Move to start position
G1 X0.1 Y200.0 Z0.3 F1500.0 E15 ; Draw the first line
G1 X0.4 Y200.0 Z0.3 F5000.0 ; Move to side a little
G1 X0.4 Y20 Z0.3 F1500.0 E30 ; Draw the second line
G92 E0 ; Reset Extruder
G1 Z2.0 F3000 ; Move Z Axis up little to prevent scratching of Heat Bed
G1 X5 Y20 Z0.3 F5000.0 ; Move over to prevent blob squish
G92 E0
G92 E0
G1 F2700 E-6
;LAYER_COUNT:48
;LAYER:0
M107
;MESH:Object 2
G0 F9000 X158.141 Y76.833 Z0.2
;TYPE:WALL-INNER
G1 F2700 E0
G1 F1800 X158.781 Y77.114 E0.03487
G1 X159.952 Y77.697 E0.10013
G1 X160.5 Y77.97 E0.13068
G1 X162.835 Y79.133 E0.26082
G1 X165.107 Y80.381 E0.39015
G1 X165.65 Y80.68 E0.42107
G1 X166.048 Y80.899 E0.44374
G1 X166.261 Y81.019 E0.45593
G1 X167.095 Y81.492 E0.50377
G1 X171.218 Y84.076 E0.74652
G1 X171.957 Y84.547 E0.79024
G1 X175.676 Y87.179 E1.01755
G1 X178.559 Y89.405 E1.19927
G1 X179.493 Y90.143 E1.25866
G1 X183.833 Y93.913 E1.54547
G1 X185.607 Y95.601 E1.66763
G1 X186.453 Y96.429 E1.72669
G1 X187.496 Y97.481 E1.8006
G1 X187.498 Y97.483 E1.80074
G1 X187.63 Y97.616 E1.81009
G1 X187.754 Y97.741 E1.81887
G1 X187.464 Y97.782 E1.82499
G1 X187.077 Y97.901 E1.84117
G1 X187.075 Y97.902 E1.84128
G1 X186.244 Y98.444 E1.89078
G1 X186.085 Y98.665 E1.90436
G1 X185.746 Y99.058 E1.93026
G1 X185.743 Y99.062 E1.93051
G1 X185.481 Y99.672 E1.96363
G1 X185.288 Y99.436 E1.96804
G1 X185.285 Y99.432 E1.96829
G1 X182.845 Y96.452 E2.16044
G1 X182.431 Y95.988 E2.19146
G1 X178.879 Y92.195 E2.45072
G1 X178.434 Y91.758 E2.48183
G1 X174.634 Y88.21 E2.7412
G1 X174.162 Y87.805 E2.77223
G1 X170.135 Y84.522 E3.03145
G1 X169.636 Y84.149 E3.06253
G1 X165.915 Y81.509 E3.29015
G1 X165.716 Y81.368 E3.30206
G1 X165.397 Y81.142 E3.31984
G1 X164.875 Y80.804 E3.3461
G1 X162.649 Y79.438 E3.4375
G1 X160.443 Y78.085 E3.48952
G1 X159.907 Y77.788 E3.49547
G1 X158.754 Y77.165 E3.50413
G1 X158.141 Y76.833 E3.50579
G0 F9000 X158.216 Y76.211
G1 F1800 X159.042 Y76.574 E3.5508
G1 X163.124 Y78.607 E3.77831
G1 X166.344 Y80.377 E3.96163
G1 X167.398 Y80.974 E4.02206
G1 X171.541 Y83.57 E4.26598
G1 X172.294 Y84.05 E4.31053
G1 X176.033 Y86.696 E4.53906
G1 X178.931 Y88.934 E4.72173
G1 X179.879 Y89.683 E4.78201
G1 X184.239 Y93.471 E5.07016
G1 X186.021 Y95.166 E5.19286
G1 X186.879 Y96.007 E5.2528
G1 X188.179 Y97.319 E5.34495
G1 X188.563 Y97.705 E5.37211
G1 X188.596 Y97.739 E5.37447
G1 X188.819 Y97.984 E5.391
G1 X189.164 Y98.364 E5.41661
G1 X189.348 Y98.567 E5.43028
G1 X189.389 Y98.612 E5.43331
G1 X189.338 Y98.577
G1 X189.09 Y98.432 E5.43513
G1 X188.484 Y98.289 E5.45161
G1 X188.436 Y98.288 E5.454
G1 X188.24 Y98.279 E5.46379
G1 X187.595 Y98.37 E5.49629
G1 X187.334 Y98.45 E5.50991
G1 X186.666 Y98.885 E5.54968
G1 X186.557 Y99.037 E5.55901
G1 X186.258 Y99.384 E5.58186
G1 X186.032 Y99.908 E5.61033
G1 X185.973 Y100.391 E5.63461
G1 X185.927 Y100.777 E5.654
G1 X186.111 Y101.294 E5.68138
G1 X186.207 Y101.56 E5.69549
G1 X186.034 Y101.322 E5.69688
G1 X185.731 Y100.929 E5.70295
G1 X185.669 Y100.849 E5.70656
G1 X185.423 Y100.548 E5.721
G1 X182.388 Y96.842 E5.95999
G1 X181.988 Y96.392 E5.99002
G1 X178.449 Y92.614 E6.24829
G1 X178.019 Y92.191 E6.27838
G1 X174.234 Y88.657 E6.53673
G1 X173.777 Y88.266 E6.56674
G1 X169.766 Y84.995 E6.82495
G1 X169.283 Y84.634 E6.85504
G1 X165.06 Y81.639 E7.11333
G1 X164.555 Y81.312 E7.14334
G1 X160.14 Y78.603 E7.40177
G1 X159.619 Y78.314 E7.43149
G1 X156.588 Y76.675 E7.6034
G1 X156.046 Y76.398 E7.63377
G1 X149.768 Y73.61 E7.97648
G1 X149.242 Y73.362 E8.00549
G1 X148.687 Y73.123 E8.03564
G1 X148.125 Y72.906 E8.06569
G1 X146.289 Y72.257 E8.16284
G1 X144.32 Y71.562 E8.26702
G1 X143.75 Y71.384 E8.29681
G1 X141.318 Y70.674 E8.42321
G1 X140.166 Y70.338 E8.48308
G1 X139.347 Y70.099 E8.52564
G1 X139.336 Y70.096 E8.52621
G1 X138.774 Y69.939 E8.55532
G1 X138.194 Y69.799 E8.58509
G1 X134.623 Y69.013 E8.76751
G1 X133.767 Y68.824 E8.81125
G1 X133.713 Y68.812 E8.81401
G1 X133.13 Y68.691 E8.84371
G1 X132.542 Y68.592 E8.87346
G1 X128.985 Y68.053 E9.05294
G1 X128.407 Y67.965 E9.08211
G1 X128.038 Y67.909 E9.10073
G1 X128.408 Y67.954 E9.10088
G1 X128.986 Y68.041 E9.10144
G1 X132.549 Y68.534 E9.1119
G1 X133.14 Y68.616 E9.11527
G1 X133.728 Y68.698 E9.12007
G1 X133.792 Y68.707 E9.12088
G1 X134.653 Y68.872 E9.13046
G1 X138.235 Y69.592 E9.18443
G1 X138.82 Y69.71 E9.19559
G1 X139.41 Y69.829 E9.20863
G1 X140.256 Y70.028 E9.23052
G1 X141.414 Y70.342 E9.26384
G1 X143.854 Y70.989 E9.34291
G1 X144.431 Y71.143 E9.36398
G1 X146.449 Y71.68 E9.45373
G1 X146.674 Y71.74 E9.46535
G1 X146.674 Y71.508 E9.47233
G1 X146.674 Y67.991 E9.6478
G1 X146.675 Y67.44 E9.67529
G1 X146.676 Y67.398 E9.67738
G1 X146.703 Y67.317 E9.68164
G1 X146.752 Y67.172 E9.68928
G1 X146.941 Y67.187 E9.69874
G1 X146.971 Y67.245 E9.69889
G1 X147.072 Y67.44 E9.70569
G1 X147.074 Y67.991 E9.72398
G1 X147.075 Y71.739 E9.91097
G1 X147.076 Y71.894 E9.9187
G1 X148.249 Y72.3 E9.98063
G1 X152.882 Y73.956 E10.22609
G1 X153.711 Y74.28 E10.2705
G1 X158.216 Y76.211 E10.51503
G1 F2700 E4.51503
G0 F9000 X158.843 Y74.778
G0 X149.995 Y111.344
G0 X149.499 Y112.827
G1 F2700 E10.51503
G1 F1800 X149.989 Y112.991 E10.54081
G1 X150.223 Y113.078 E10.55326
G1 X149.988 Y112.997 E10.55328
G1 X149.499 Y112.827 E10.5534
G0 F9000 X152.663 Y113.977
G1 F1800 X152.831 Y114.039 E10.56234
G1 X152.995 Y114.105 E10.57116
G1 X152.831 Y114.042
G1 X152.663 Y113.977 E10.57121
G1 F2700 E4.57121
G0 F9000 X152.101 Y115.438
G0 X168.337 Y123.622
G0 X169.774 Y122.714
G1 F2700 E10.57121
G1 F1800 X170.126 Y122.945 E10.59221
G1 X170.891 Y123.487 E10.63899
G1 X170.121 Y122.954 E10.63935
G1 X169.774 Y122.714 E10.63953
G1 F2700 E4.63953
G0 F9000 X170.994 Y121.642
G0 X199.325 Y132.699
G0 X200.843 Y132.325
G1 F2700 E10.63953
G1 F1800 X200.966 Y132.729 E10.6606
G1 X201.227 Y133.887 E10.71982
G1 X200.944 Y132.735 E10.72088
G1 X200.843 Y132.325 E10.72127
G1 F2700 E4.72127
G0 F9000 X199.325 Y132.699
G0 X195.546 Y148.768
G0 X194.181 Y149.532
G1 F2700 E10.72127
G1 F1800 X194.349 Y149.833 E10.73846
G1 X195.221 Y151.519 E10.83316
G1 X194.341 Y149.838 E10.83385
G1 X194.181 Y149.532 E10.834
G1 F2700 E4.834
G0 F9000 X195.725 Y149.088
G0 X202.014 Y161.421
G0 X203.523 Y161.846
G1 F2700 E10.834
G1 F1800 X203.523 Y162.037 E10.84353
G1 X203.523 Y162.441 E10.86369
G1 X203.373 Y162.643 E10.87624
G1 X203.228 Y162.803 E10.88701
G1 X203.218 Y162.812 E10.88769
G1 X203.047 Y162.968 E10.89923
G1 X203.015 Y162.993 E10.90126
G1 X202.851 Y163.118 E10.91155
G1 X202.654 Y163.234 E10.92295
G1 X202.464 Y163.325 E10.93346
G1 X202.442 Y163.336 E10.93469
G1 X202.24 Y163.407 E10.94537
G1 X202.227 Y163.412 E10.94607
G1 X201.987 Y163.473 E10.95842
G1 X201.753 Y163.509 E10.97023
G1 X201.706 Y163.511 E10.97258
G1 X201.513 Y163.521 E10.98222
G1 X201.287 Y163.51 E10.99351
G1 X201.082 Y163.48 E11.00385
G1 X201.286 Y163.48 E11.00405
G1 X201.512 Y163.479 E11.00482
G1 X201.704 Y163.478 E11.0054
G1 X201.741 Y163.468
G1 X201.967 Y163.404 E11.00662
G1 X202.213 Y163.333 E11.00843
G1 X202.385 Y163.236 E11.00968
G1 X202.413 Y163.22
G1 X202.566 Y163.111 E11.01132
G1 X202.751 Y162.979 E11.01462
G1 X202.914 Y162.862 E11.01732
G1 X203.064 Y162.673 E11.0213
G1 X203.076 Y162.658
G1 X203.17 Y162.512 E11.0239
G1 X203.306 Y162.301 E11.02912
G1 X203.478 Y162.037 E11.032
G1 X203.523 Y161.846 E11.03256
G1 F2700 E5.03256
G0 F9000 X202.014 Y161.421
G0 X132.968 Y110.245
G0 X132.643 Y108.626
G1 F2700 E11.03256
G1 F1800 X132.387 Y108.59 E11.04545
G1 X131.228 Y108.422 E11.10388
G1 X132.388 Y108.582 E11.10422
G1 X132.643 Y108.626 E11.10428
G1 F2700 E5.10428
G0 F9000 X132.64 Y107.037
G0 X129.569 Y106.609
G0 X128.71 Y106.517
G0 X124.121 Y106.096
G0 X124.002 Y107.656
G1 F2700 E11.10428
G1 F1800 X123.35 Y107.614 E11.13688
G1 X123.013 Y107.591 E11.15373
G1 X123.35 Y107.606 E11.15382
G1 X124.002 Y107.656 E11.15401
G0 F9000 X120.979 Y107.497
G1 F1800 X120.355 Y107.475 E11.18516
G1 X119.988 Y107.462 E11.20348
G1 X120.355 Y107.468 E11.20359
G1 X120.979 Y107.497 E11.20375
G1 F2700 E5.20375
G0 F9000 X120.925 Y109.061
G0 X115.411 Y109.007
G0 X115.135 Y107.455
G1 F2700 E11.20375
G1 F1800 X114.352 Y107.496 E11.24286
G1 X114.292 Y107.497 E11.24586
G1 X112.647 Y107.545 E11.32796
G1 X114.291 Y107.468 E11.32993
G1 X114.351 Y107.468 E11.33012
G1 X115.135 Y107.455 E11.33106
G1 F2700 E5.33106
G0 F9000 X115.218 Y109.017
G0 X108.742 Y109.372
G0 X108.6 Y107.814
G1 F2700 E11.33106
G1 F1800 X108.218 Y107.848 E11.35019
G1 X107.906 Y107.877 E11.36582
G1 X108.217 Y107.843 E11.36584
G1 X108.6 Y107.814 E11.36594
G1 F2700 E5.36594
G0 F9000 X108.085 Y106.285
G0 X105.028 Y106.617
G0 X104.165 Y106.737
G0 X99.039 Y107.54
G0 X99.3 Y109.083
G1 F2700 E11.36594
G1 F1800 X99.276 Y109.087 E11.36716
G1 X99.233 Y109.095 E11.36934
G1 X99.275 Y109.087
G1 X99.3 Y109.083 E11.36936
G1 F2700 E5.36936
G0 F9000 X99.59 Y110.62
G0 X88.366 Y113.413
G0 X87.907 Y111.918
G1 F2700 E11.36936
G1 F1800 X87.487 Y112.046 E11.39127
G1 X87.395 Y112.075 E11.39608
G1 X87.486 Y112.044 E11.39609
G1 X87.907 Y111.918 E11.39613
G1 F2700 E5.39613
G0 F9000 X88.366 Y113.413
G0 X72.067 Y120.194
G0 X71.187 Y118.892
G1 F2700 E11.39613
G1 F1800 X71.156 Y118.909 E11.39789
G1 X71.086 Y118.948 E11.40189
G1 X71.155 Y118.909
G1 X71.187 Y118.892 E11.40191
G0 F9000 X69.168 Y120.031
G1 F1800 X68.827 Y120.249 E11.42211
G1 X68.538 Y120.434 E11.43923
G1 X66.552 Y121.62 E11.55463
G1 X66.351 Y121.74 E11.56631
G1 X66.546 Y121.612 E11.56638
G1 X68.522 Y120.409 E11.57019
G1 X68.814 Y120.231 E11.57084
G1 X69.168 Y120.031 E11.57124
G1 F2700 E5.57124
G0 F9000 X70.012 Y121.346
G0 X46.902 Y142.244
G0 X45.625 Y141.34
G1 F2700 E11.57124
G1 F1800 X45.434 Y141.609 E11.5877
G1 X44.826 Y142.467 E11.64016
G1 X45.423 Y141.602 E11.64073
G1 X45.625 Y141.34 E11.64091
G0 F9000 X44.163 Y143.428
G1 F1800 X43.982 Y143.71 E11.65763
G1 X42.51 Y146.002 E11.79353
G1 X42.402 Y146.169 E11.80345
G1 X42.503 Y145.998 E11.80349
G1 X43.972 Y143.704 E11.80567
G1 X44.163 Y143.428 E11.80583
G1 F2700 E5.80583
G0 F9000 X42.875 Y142.54
G0 X34.626 Y135.651
G0 X33.087 Y135.366
G1 F2700 E11.80583
G1 F1800 X32.775 Y137.046 E11.89107
G1 X32.675 Y137.585 E11.91842
G1 X32.234 Y139.954 E12.03864
G1 X32.618 Y137.575 E12.04434
G1 X32.716 Y137.036 E12.04696
G1 X33.087 Y135.366 E12.05122
G1 F2700 E6.05122
G0 F9000 X34.626 Y135.651
G0 X35.204 Y157.058
G0 X36.649 Y157.657
G1 F2700 E12.05122
G1 F1800 X36.597 Y157.79 E12.05834
G1 X36.53 Y157.959 E12.06741
G1 X36.594 Y157.789
G1 X36.649 Y157.657 E12.06745
G1 F2700 E6.06745
G0 F9000 X35.141 Y157.209
G0 X33.365 Y161.935
G0 X33.439 Y163.503
G1 F2700 E12.06745
G1 F1800 X33.401 Y163.509 E12.06937
G1 X33.156 Y163.521 E12.08161
G1 X33.037 Y163.516 E12.08755
G1 X32.925 Y163.51 E12.09315
G1 X32.751 Y163.485 E12.10192
G1 X32.695 Y163.476 E12.10475
G1 X32.454 Y163.415 E12.11715
G1 X32.255 Y163.344 E12.12769
G1 X32.007 Y163.225 E12.14141
G1 X31.826 Y163.12 E12.15185
G1 X31.629 Y162.971 E12.16418
G1 X31.542 Y162.892 E12.17004
G1 X31.465 Y162.822 E12.17523
G1 X31.293 Y162.632 E12.18802
G1 X31.287 Y162.623 E12.18856
G1 X31.142 Y162.424 E12.20084
G1 X31.145 Y161.979 E12.22304
G1 X31.331 Y162.321 E12.22594
G1 X31.436 Y162.514 E12.22915
G1 X31.593 Y162.727 E12.23309
G1 X31.637 Y162.786 E12.23344
G1 X31.711 Y162.829 E12.23393
G1 X31.923 Y162.952 E12.23797
G1 X32.104 Y163.058 E12.24132
G1 X32.34 Y163.196 E12.24542
G1 X32.52 Y163.301 E12.24801
G1 X32.726 Y163.421 E12.24981
G1 X32.757 Y163.439
G1 X32.931 Y163.468 E12.25048
G1 X33.038 Y163.486 E12.25072
G1 X33.157 Y163.49
G1 X33.401 Y163.501 E12.25109
G1 X33.439 Y163.503
G1 F2700 E6.25109
G0 F9000 X33.365 Y161.935
G0 X35.141 Y157.209
G0 X36.149 Y154.781
G0 X38.269 Y150.36
G0 X77.286 Y78.863
G0 X76.408 Y76.876
G1 F2700 E12.25109
G1 F1800 X76.226 Y76.979 E12.26152
G1 X75.914 Y77.156 E12.27942
G1 X73.781 Y78.37 E12.40186
G1 X72.737 Y78.964 E12.46179
G1 X72.233 Y79.251 E12.49072
G1 X71.704 Y79.569 E12.52152
G1 X68.66 Y81.538 E12.70238
G1 X68.625 Y81.56 E12.70445
G1 X68.302 Y81.769 E12.72364
G1 X67.799 Y82.12 E12.75424
G1 X65.004 Y84.153 E12.92667
G1 X64.515 Y84.519 E12.95714
G1 X64.044 Y84.897 E12.98727
G1 X60.484 Y87.806 E13.21664
G1 X60.015 Y88.208 E13.24745
G1 X59.578 Y88.61 E13.27708
G1 X57.028 Y90.943 E13.44951
G1 X56.581 Y91.382 E13.48077
G1 X56.152 Y91.833 E13.51182
G1 X55.782 Y92.251 E13.53967
G1 X51.067 Y97.294 E13.88411
G1 X50.655 Y97.788 E13.9162
G1 X50.273 Y98.281 E13.94731
G1 X49.937 Y98.749 E13.97606
G1 X49.409 Y99.442 E14.01952
G1 X49.402 Y99.451 E14.02009
G1 X49.164 Y99.762 E14.03963
G1 X48.942 Y99.101 E14.06186
G1 X48.935 Y99.093 E14.06239
G1 X48.575 Y98.687 E14.08946
G1 X48.391 Y98.422 E14.10556
G1 X47.534 Y97.918 E14.15516
G1 X47.504 Y97.901 E14.15688
G1 X47.155 Y97.756 E14.17574
G1 X46.907 Y97.731 E14.18817
G1 X47.017 Y97.62 E14.18825
G1 X47.117 Y97.519 E14.18939
G1 X47.141 Y97.495 E14.19102
G1 X48.616 Y96.002 E14.29573
G1 X51.93 Y92.913 E14.52175
G1 X55.379 Y89.95 E14.7486
G1 X56.071 Y89.417 E14.79218
G1 X58.968 Y87.179 E14.97482
G1 X62.697 Y84.54 E15.20273
G1 X63.42 Y84.081 E15.24546
G1 X67.549 Y81.493 E15.48857
G1 X68.299 Y81.058 E15.53183
G1 X68.335 Y81.037 E15.53391
G1 X71.551 Y79.29 E15.67359
G1 X72.093 Y78.995 E15.68924
G1 X72.598 Y78.72 E15.70287
G1 X73.671 Y78.177 E15.72821
G1 X75.883 Y77.104 E15.75744
G1 X76.408 Y76.876 E15.76802
G1 F2700 E9.76802
G0 F9000 X77.765 Y78.597
G0 X106.322 Y69.534
G0 X106.086 Y67.987
G1 F2700 E15.76802
G1 F1800 X105.607 Y68.059 E15.79218
G1 X105.031 Y68.147 E15.82125
G1 X102.104 Y68.592 E15.96896
G1 X101.516 Y68.691 E15.99871
G1 X100.934 Y68.811 E16.02836
G1 X100.869 Y68.825 E16.03167
G1 X98.522 Y69.341 E16.15156
G1 X97.066 Y69.662 E16.22595
G1 X96.452 Y69.798 E16.25732
G1 X95.872 Y69.939 E16.2871
G1 X95.301 Y70.097 E16.31666
G1 X94.762 Y70.254 E16.34467
G1 X90.895 Y71.383 E16.54565
G1 X90.325 Y71.562 E16.57545
G1 X90.115 Y71.636 E16.58656
G1 X88.347 Y72.261 E16.68012
G1 X86.524 Y72.906 E16.77659
G1 X85.966 Y73.122 E16.80644
G1 X82.786 Y74.448 E16.97833
G1 X82.241 Y74.683 E17.00794
G1 X81.705 Y74.934 E17.03747
G1 X77.572 Y76.938 E17.26663
G1 X77.039 Y77.211 E17.29651
G1 X76.7 Y77.399 E17.31584
G1 X76.521 Y77.499 E17.32607
G1 X72.536 Y79.769 E17.55488
G1 X72.022 Y80.078 E17.5848
G1 X68.637 Y82.267 E17.78591
G1 X68.147 Y82.609 E17.81573
G1 X65.36 Y84.636 E17.98766
G1 X64.883 Y84.993 E18.01738
G1 X64.422 Y85.363 E18.04687
G1 X60.869 Y88.266 E18.27578
G1 X60.414 Y88.657 E18.30571
G1 X59.983 Y89.053 E18.33491
G1 X57.441 Y91.379 E18.50681
G1 X57.009 Y91.803 E18.53701
G1 X56.594 Y92.239 E18.56704
G1 X56.22 Y92.661 E18.59517
G1 X51.517 Y97.691 E18.93872
G1 X51.123 Y98.164 E18.96943
G1 X50.754 Y98.64 E18.99948
G1 X50.425 Y99.099 E19.02766
G1 X49.189 Y100.719 E19.12932
G1 X49.05 Y100.901 E19.14074
G1 X48.464 Y101.668 E19.1889
G1 X48.315 Y101.863 E19.20114
G1 X48.418 Y101.634 E19.20195
G1 X48.682 Y100.621 E19.22627
G1 X48.698 Y100.391 E19.23652
G1 X48.705 Y100.308 E19.24067
G1 X48.635 Y100.07 E19.25305
G1 X48.412 Y99.408 E19.2879
G1 X48.099 Y99.054 E19.31148
G1 X47.973 Y98.872 E19.32252
G1 X47.236 Y98.439 E19.36517
G1 X47.007 Y98.344 E19.37753
G1 X46.282 Y98.271 E19.41389
G1 X46.245 Y98.268 E19.41574
G1 X46.201 Y98.279 E19.418
G1 X45.389 Y98.498 E19.45996
G1 X45.324 Y98.542 E19.46388
G1 X45.375 Y98.486
G1 X45.877 Y97.934 E19.47868
G1 X46.055 Y97.739 E19.49082
G1 X46.081 Y97.712 E19.49269
G1 X48.189 Y95.58 E19.64227
G1 X51.528 Y92.467 E19.87003
G1 X54.996 Y89.488 E20.09811
G1 X55.705 Y88.942 E20.14276
G1 X58.621 Y86.689 E20.3266
G1 X62.35 Y84.05 E20.55452
G1 X63.101 Y83.573 E20.59891
G1 X67.248 Y80.974 E20.84307
G1 X68.034 Y80.518 E20.88841
G1 X72.327 Y78.185 E21.13217
G1 X73.409 Y77.637 E21.19268
G1 X75.621 Y76.564 E21.31534
G1 X76.425 Y76.214 E21.35908
G1 X80.935 Y74.28 E21.6039
G1 X81.773 Y73.953 E21.64878
G1 X86.387 Y72.305 E21.89322
G1 X87.572 Y71.895 E21.95578
